X:1
T:Cello Suite No. 1 Prelude
C:Johann Sebastian Bach
M:4/4
L:1/8
Q:1/4=76
K:G
G,DGBdBGD | B,DGBdBGD | CEAcecAE | CD^FAcA^FD |
B,DGBdBGD | B,DGBd^fdB | EGcegecG | EAcegecA |
D,D^FAcA^FD | G,DGBdBGD |]
